static/assets/template/assets/img/icons/essential/detailed/Meat.svg

<svg height="85" viewBox="0 0 137 85" width="137" xmlns="http://www.w3.org/2000/svg"><g fill="none" fill-rule="evenodd"><g fill-rule="nonzero" transform="translate(1 2)"><path d="m.7 28.4v24.7c0 9 7.1 16.8 16.1 17.5 5.9.4 15.9-2.7 41.4 7 5.6 2.1 11.9 2.8 17.9 3.3 16.4 1.3 33.1-.6 46.7-10.5 5.4-4 10.8-9.3 11.1-16.5v-27.6"/><path d="m21.3 7.9c-.2 0-.4.1-.6.1"/><path d="m20.7 8.1c-8.8 2-17.2 5.9-19.6 16.5-2.5 11.3 5.7 22.8 18.7 21.7 14.4-1.2 28.3 3.2 38.3 7s41.6 6.6 56.9-2.4 19.5-14.4 18.6-24.8c-1.2-13.6-12.4-20.8-24.9-23.2-24.9-4.7-50.1-2-74.8 2.7"/><path d="m47.8 35.3 25.7-18.7"/><path d="m27.3 28.8 10.4-7.6"/><ellipse cx="96.2" cy="28.9" rx="10.7" ry="6.2"/></g><g transform="translate(6 8)"><g fill-rule="nonzero"><path d="m.4 25.6v21.5c0 9 6.9 16.8 15.5 17.5 5.7.4 15.4-2.7 39.9 7 5.4 2.1 11.5 2.8 17.2 3.3 15.9 1.3 31.9-.6 45.1-10.5 5.3-4 10.4-9.3 10.7-16.5v-27.6" fill="#bad8ff"/><path d="m94.7 50.1c6.1-.8 11.7-2.2 16-4.6 14.8-8 18.8-12.9 17.9-22.3-1.2-12.2-11.9-18.6-24-20.7-24.2-4.2-48.8-1.8-72.7 2.6-11.2 2-27.5 2.7-31 16.9-.9 3.5-.8 13 .4 14.1 4.5 4.5 9.5 5.9 17.7 5.3 13.9-1.1 27.2 2.8 36.9 6.3 5 1.8 15.6 3.3 26.7 3.2"/><path d="m42.8 29.3 25.7-18.7"/><path d="m22.3 22.8 10.4-7.6"/></g><ellipse cx="91.2" cy="22.9" rx="10.7" ry="6.2"/></g><g transform="translate(1 2)"><g stroke-linecap="round" stroke-linejoin="round" stroke-width="3"><path d="m.6 29.4.1 23.7c0 9 7.1 16.8 16.1 17.5 5.9.4 15.9-2.7 41.4 7 5.6 2.1 11.9 2.8 17.9 3.3 16.4 1.3 33.1-.6 46.7-10.5 5.4-4 10.8-9.3 11.1-16.5l-.1-26.2"/><path d="m23.8 7.4c-.1 0-.2 0-.3.1"/><path d="m108.7 53.7c2.3-.8 4.4-1.7 6.3-2.8 15.3-9 19.5-14.4 18.6-24.8-1.2-13.6-12.4-20.8-24.9-23.2-24.3-4.6-49-2.2-73.2 2.4"/><path d="m17.3 9c-7.5 2.3-14.1 6.3-16.2 15.6-2.5 11.3 5.7 22.8 18.7 21.7 14.4-1.2 28.3 3.2 38.3 7 6.4 2.5 21.7 4.5 35.9 3.2"/><path d="m71.5 18.1 2-1.5"/><path d="m47.8 35.3 16.2-11.7"/><path d="m27.3 28.8 10.4-7.6"/><path d="m89.4 22.5c.1 0 .2-.1.3-.1"/></g><ellipse cx="98.4" cy="30.1" fill-rule="nonzero" rx="10.8" ry="6.3"/><path d="m97.2 21.3c6.7.3 12 3.5 12 7.5 0 4.2-5.8 7.5-13 7.5s-13-3.4-13-7.5c0-.6.1-1.3.4-1.9" stroke-linecap="round" stroke-linejoin="round" stroke-width="3"/></g></g></svg>

<?xml version="1.0" encoding="UTF-8"?>
<svg width="137px" height="85px" viewBox="0 0 137 85" version="1.1" xmlns="http://www.w3.org/2000/svg" xmlns:xlink="http://www.w3.org/1999/xlink">
    <!-- Generator: Sketch 51.2 (57519) - http://www.bohemiancoding.com/sketch -->
    <title>Meat</title>
    <desc>Created with Sketch.</desc>
    <defs></defs>
    <g id="Page-1" stroke="none" stroke-width="1" fill="none" fill-rule="evenodd">
        <g id="Meat" transform="translate(1.000000, 2.000000)">
            <g id="Group" class="fill-neutral" fill-rule="nonzero">
                <path d="M0.7,28.4 L0.7,53.1 C0.7,62.1 7.8,69.9 16.8,70.6 C22.7,71 32.7,67.9 58.2,77.6 C63.8,79.7 70.1,80.4 76.1,80.9 C92.5,82.2 109.2,80.3 122.8,70.4 C128.2,66.4 133.6,61.1 133.9,53.9 L133.9,26.3" id="Shape"></path>
                <path d="M21.3,7.9 C21.1,7.9 20.9,8 20.7,8" id="Shape"></path>
                <path d="M20.7,8.1 C11.9,10.1 3.5,14 1.1,24.6 C-1.4,35.9 6.8,47.4 19.8,46.3 C34.2,45.1 48.1,49.5 58.1,53.3 C68.1,57.1 99.7,59.9 115,50.9 C130.3,41.9 134.5,36.5 133.6,26.1 C132.4,12.5 121.2,5.3 108.7,2.9 C83.8,-1.8 58.6,0.9 33.9,5.6" id="Shape"></path>
                <path d="M47.8,35.3 L73.5,16.6" id="Shape"></path>
                <path d="M27.3,28.8 L37.7,21.2" id="Shape"></path>
                <ellipse id="Oval" cx="96.2" cy="28.9" rx="10.7" ry="6.2"></ellipse>
            </g>
            <g id="Group" transform="translate(5.000000, 6.000000)">
                <path d="M0.4,25.6 L0.4,47.1 C0.4,56.1 7.3,63.9 15.9,64.6 C21.6,65 31.3,61.9 55.8,71.6 C61.2,73.7 67.3,74.4 73,74.9 C88.9,76.2 104.9,74.3 118.1,64.4 C123.4,60.4 128.5,55.1 128.8,47.9 L128.8,20.3" id="Shape" fill="#BAD8FF" fill-rule="nonzero"></path>
                <path d="M94.7,50.1 C100.8,49.3 106.4,47.9 110.7,45.5 C125.5,37.5 129.5,32.6 128.6,23.2 C127.4,11 116.7,4.6 104.6,2.5 C80.4,-1.7 55.8,0.7 31.9,5.1 C20.7,7.1 4.4,7.8 0.9,22 C1.07247544e-13,25.5 0.1,35 1.3,36.1 C5.8,40.6 10.8,42 19,41.4 C32.9,40.3 46.2,44.2 55.9,47.7 C60.9,49.5 71.5,51 82.6,50.9" id="Shape" class="fill-primary-100" fill-rule="nonzero"></path>
                <path d="M42.8,29.3 L68.5,10.6" id="Shape" class="fill-primary-400" fill-rule="nonzero"></path>
                <path d="M22.3,22.8 L32.7,15.2" id="Shape" class="fill-primary-400" fill-rule="nonzero"></path>
                <ellipse id="Oval" cx="91.2" cy="22.9" rx="10.7" ry="6.2"></ellipse>
            </g>
            <g id="Group">
                <path d="M0.6,29.4 L0.7,53.1 C0.7,62.1 7.8,69.9 16.8,70.6 C22.7,71 32.7,67.9 58.2,77.6 C63.8,79.7 70.1,80.4 76.1,80.9 C92.5,82.2 109.2,80.3 122.8,70.4 C128.2,66.4 133.6,61.1 133.9,53.9 L133.8,27.7" id="Shape" class="stroke-primary" stroke-width="3" stroke-linecap="round" stroke-linejoin="round"></path>
                <path d="M23.8,7.4 C23.7,7.4 23.6,7.4 23.5,7.5" id="Shape" class="stroke-primary" stroke-width="3" stroke-linecap="round" stroke-linejoin="round"></path>
                <path d="M108.7,53.7 C111,52.9 113.1,52 115,50.9 C130.3,41.9 134.5,36.5 133.6,26.1 C132.4,12.5 121.2,5.3 108.7,2.9 C84.4,-1.7 59.7,0.7 35.5,5.3" id="Shape" class="stroke-primary" stroke-width="3" stroke-linecap="round" stroke-linejoin="round"></path>
                <path d="M17.3,9 C9.8,11.3 3.2,15.3 1.1,24.6 C-1.4,35.9 6.8,47.4 19.8,46.3 C34.2,45.1 48.1,49.5 58.1,53.3 C64.5,55.8 79.8,57.8 94,56.5" id="Shape" class="stroke-primary" stroke-width="3" stroke-linecap="round" stroke-linejoin="round"></path>
                <path d="M71.5,18.1 L73.5,16.6" id="Shape" class="stroke-primary" stroke-width="3" stroke-linecap="round" stroke-linejoin="round"></path>
                <path d="M47.8,35.3 L64,23.6" id="Shape" class="stroke-primary" stroke-width="3" stroke-linecap="round" stroke-linejoin="round"></path>
                <path d="M27.3,28.8 L37.7,21.2" id="Shape" class="stroke-primary" stroke-width="3" stroke-linecap="round" stroke-linejoin="round"></path>
                <path d="M89.4,22.5 C89.5,22.5 89.6,22.4 89.7,22.4" id="Shape" class="stroke-primary" stroke-width="3" stroke-linecap="round" stroke-linejoin="round"></path>
                <ellipse id="Oval" class="fill-primary-400" fill-rule="nonzero" cx="98.4" cy="30.1" rx="10.8" ry="6.3"></ellipse>
                <path d="M97.2,21.3 C103.9,21.6 109.2,24.8 109.2,28.8 C109.2,33 103.4,36.3 96.2,36.3 C89,36.3 83.2,32.9 83.2,28.8 C83.2,28.2 83.3,27.5 83.6,26.9" id="Shape" class="stroke-primary" stroke-width="3" stroke-linecap="round" stroke-linejoin="round"></path>
            </g>
        </g>
    </g>
</svg>
